Adwaita++/actions/22/document-save-as.svg

<svg fill="none" height="22" viewBox="0 0 22 22" width="22" xmlns="http://www.w3.org/2000/svg">
  <path clip-rule="evenodd" d="m5.58333 3c-.59079 0-1.08333.50355-1.08333 1.10756v2.21514c0 .60401.49254 1.10756 1.08333 1.10756h4.33334v2.83804l-1.38792-1.41897c-.20384-.20839-.49123-.31149-.77864-.3115h-1.08334-.0001v1.10756c.00001.29384.10086.58761.30468.79611l3.25005 3.3226.3046.3116h.948l.3046-.3116 3.25-3.3226c.2039-.2085.3047-.50227.3047-.79611v-1.10756h-1.0833c-.2874.00001-.5748.10311-.7786.3115l-1.3881 1.41907v-2.83814h4.3334c.5908 0 1.0833-.50355 1.0833-1.10756v-2.21514c0-.60401-.4925-1.10756-1.0833-1.10756zm6.49997 3.32269h-2.16663l-4.33334.00001v-2.21514h10.83337v2.21514zm-5.02652 6.03191c-.13848.0319-.25909.119-.3355.2423l-1.0736 1.6614c-.05337.0579-.09395.1271-.11895.2028-.0117.0354-.01986.0718-.02442.1086h-.00431v.0697.0008 4.3598h10.8333v-4.4303h-.0076c-.0046-.0368-.0127-.0732-.0244-.1086-.025-.0757-.0656-.1449-.119-.2028l-1.0736-1.6614c-.0571-.0897-.1382-.1603-.2335-.2033s-.2007-.0566-.3033-.039c-.0883.0176-.1709.0578-.2402.1169-.0693.059-.1232.1351-.1566.2213-.0334.0861-.0452.1795-.0345.2716s.0436.18.0958.2555l.8723 1.3498h-8.3874l.87227-1.3498c.06205-.09.09659-.197.09921-.3074s-.02681-.2191-.08451-.3121c-.05771-.093-.14105-.1661-.23932-.2099s-.20698-.0563-.31217-.0359zm2.06567 3.8073c.02254-.0011.04518-.0011.06771 0 .31521-.0616.6489.2257.64323.5537v.0693h2.16671v-.0693c-.0044-.2925.2554-.5616.5416-.5616s.5457.2691.5417.5616v.0693c0 .604-.4925 1.1075-1.0833 1.1075h-2.16671c-.5908 0-1.08333-.5035-1.08333-1.1075v-.0693c-.0117-.2404.14866-.4788.37239-.5537z" fill="#444" fill-rule="evenodd"/>
</svg>

<svg xmlns="http://www.w3.org/2000/svg" fill="none" width="22" height="22" viewBox="0 0 22 22">
 <path fill="#444" fill-rule="evenodd" d="M5.58333 3C4.99254 3 4.5 3.50355 4.5 4.10756V6.3227C4.5 6.92671 4.99254 7.43026 5.58333 7.43026H9.91667V10.2683L8.52875 8.84933C8.32491 8.64094 8.03752 8.53784 7.75011 8.53783H6.66677H6.66667V9.64539C6.66668 9.93923 6.76753 10.233 6.97135 10.4415L10.2214 13.7641L10.526 14.0757H11.474L11.7786 13.7641L15.0286 10.4415C15.2325 10.233 15.3333 9.93923 15.3333 9.64539V8.53783H14.25C13.9626 8.53784 13.6752 8.64094 13.4714 8.84933L12.0833 10.2684V7.43026H16.4167C17.0075 7.43026 17.5 6.92671 17.5 6.3227V4.10756C17.5 3.50355 17.0075 3 16.4167 3H5.58333ZM12.0833 6.32269H9.91667L5.58333 6.3227V4.10756H16.4167V6.3227L12.0833 6.32269ZM7.05678 12.3546C6.9183 12.3865 6.79769 12.4736 6.72128 12.5969L5.64768 14.2583C5.59431 14.3162 5.55373 14.3854 5.52873 14.4611C5.51703 14.4965 5.50887 14.5329 5.50431 14.5697H5.5V14.6394V14.6402V19H16.3333V14.5697H16.3257C16.3211 14.5329 16.313 14.4965 16.3013 14.4611C16.2763 14.3854 16.2357 14.3162 16.1823 14.2583L15.1087 12.5969C15.0516 12.5072 14.9705 12.4366 14.8752 12.3936C14.7799 12.3506 14.6745 12.337 14.5719 12.3546C14.4836 12.3722 14.401 12.4124 14.3317 12.4715C14.2624 12.5305 14.2085 12.6066 14.1751 12.6928C14.1417 12.7789 14.1299 12.8723 14.1406 12.9644C14.1513 13.0565 14.1842 13.1444 14.2364 13.2199L15.1087 14.5697H6.7213L7.59357 13.2199C7.65562 13.1299 7.69016 13.0229 7.69278 12.9125C7.6954 12.8021 7.66597 12.6934 7.60827 12.6004C7.55056 12.5074 7.46722 12.4343 7.36895 12.3905C7.27068 12.3467 7.16197 12.3342 7.05678 12.3546ZM9.12245 16.1619C9.14499 16.1608 9.16763 16.1608 9.19016 16.1619C9.50537 16.1003 9.83906 16.3876 9.83339 16.7156V16.7849H12.0001V16.7156C11.9957 16.4231 12.2555 16.154 12.5417 16.154C12.8279 16.154 13.0874 16.4231 13.0834 16.7156V16.7849C13.0834 17.3889 12.5909 17.8924 12.0001 17.8924H9.83339C9.24259 17.8924 8.75006 17.3889 8.75006 16.7849V16.7156C8.73836 16.4752 8.89872 16.2368 9.12245 16.1619Z" clip-rule="evenodd"/>
</svg>
